static/assets/img/icons/theme/navigation/double-check.svg

<svg height="24" viewBox="0 0 24 24" width="24" xmlns="http://www.w3.org/2000/svg"><g fill="none" fill-rule="evenodd"><path d="m0 0h24v24h-24z" opacity="0"/><g fill="#000" fill-rule="nonzero"><path d="m9.26193932 16.6476484c-.35768635.4208075-.98878027.4719773-1.40958774.1142909-.42080747-.3576863-.47197724-.9887803-.1142909-1.4095877l8.50000002-10.00000002c.3633011-.42741303 1.0070408-.47243856 1.4263031-.0997609l4.5 4c.4127828.36691802.4499635.99899042.0830455 1.41177312-.366918.4127828-.9989904.4499635-1.4117731.0830455l-3.7358508-3.32075624z" opacity=".3" transform="matrix(-1 0 0 -1 29.99999 22.000004)"/><path d="m4.26193932 17.6476484c-.35768635.4208075-.98878027.4719773-1.40958774.1142909-.42080747-.3576863-.47197724-.9887803-.1142909-1.4095877l8.50000002-10.00000002c.3633011-.42741303 1.0070408-.47243856 1.4263031-.0997609l4.5 4.00000002c.4127828.366918.4499635.9989904.0830455 1.4117731-.366918.4127828-.9989904.4499635-1.4117731.0830455l-3.7358508-3.32075624z" transform="matrix(-1 0 0 -1 19.99999 24.000004)"/></g></g></svg>

<svg width="24px" height="24px" viewBox="0 0 24 24" version="1.1" xmlns="http://www.w3.org/2000/svg" xmlns:xlink="http://www.w3.org/1999/xlink">
    <title>Icon For Double-check</title>
    <g stroke="none" stroke-width="1" fill="none" fill-rule="evenodd">
        <polygon points="0 0 24 0 24 24 0 24" opacity="0"></polygon>
        <path d="M9.26193932,16.6476484 C8.90425297,17.0684559 8.27315905,17.1196257 7.85235158,16.7619393 C7.43154411,16.404253 7.38037434,15.773159 7.73806068,15.3523516 L16.2380607,5.35235158 C16.6013618,4.92493855 17.2451015,4.87991302 17.6643638,5.25259068 L22.1643638,9.25259068 C22.5771466,9.6195087 22.6143273,10.2515811 22.2474093,10.6643638 C21.8804913,11.0771466 21.2484189,11.1143273 20.8356362,10.7474093 L17.0997854,7.42665306 L9.26193932,16.6476484 Z" fill="#000000" fill-rule="nonzero" opacity="0.3" transform="translate(14.999995, 11.000002) rotate(-180.000000) translate(-14.999995, -11.000002) "></path>
        <path d="M4.26193932,17.6476484 C3.90425297,18.0684559 3.27315905,18.1196257 2.85235158,17.7619393 C2.43154411,17.404253 2.38037434,16.773159 2.73806068,16.3523516 L11.2380607,6.35235158 C11.6013618,5.92493855 12.2451015,5.87991302 12.6643638,6.25259068 L17.1643638,10.2525907 C17.5771466,10.6195087 17.6143273,11.2515811 17.2474093,11.6643638 C16.8804913,12.0771466 16.2484189,12.1143273 15.8356362,11.7474093 L12.0997854,8.42665306 L4.26193932,17.6476484 Z" fill="#000000" fill-rule="nonzero" transform="translate(9.999995, 12.000002) rotate(-180.000000) translate(-9.999995, -12.000002) "></path>
    </g>
</svg>
